X: 27869
T: Mount Errigal
R: jig
M: 6/8
K: Eminor
EFG BAB|e~e2 BAB|G~G2 BAG|F~F2 Bdf|
eBG E~E2|G~G2 BAB|DFA GFE|1 BDF EzD:|2 BDF E gf||
egb egb|dAd fef|gfe fed|dAF FEF|
egb bag|dAd fef|gfe fdA|eBG Bgf|
egb a~a2|f~f2 d~d2|Bef g~g2|dAF FEF|
egb bag|dAd fef|gfe fdA|egf ezD||

